assets/svg/1F60E.svg

<svg xmlns="http://www.w3.org/2000/svg" viewBox="0 0 64 64" enable-background="new 0 0 64 64"><path fill="#fbb041" d="m63.771 31.617c0 17.572-14.24 31.814-31.812 31.814-17.572 0-31.812-14.242-31.812-31.814 0-17.57 14.24-31.812 31.812-31.812 17.572 0 31.812 14.241 31.812 31.812"/><g opacity=".987"><path fill="#e79d3c" d="m15.287 40.815c-5.639-12.09-5.89-25.11-.793-35.875-8.637 5.686-14.347 15.458-14.347 26.575 0 17.572 14.24 31.812 31.812 31.812.314 0 .625-.039.931-.047-7.292-6.138-13.438-13.525-17.603-22.465"/></g><g fill="#25333a"><path d="m4.389 19c.619 0 21.68 0 24.912 0 1.322 0 1.817 3.279 1.016 5.246-7.289 18-19.654 18-26.945 0-.8-1.966-.301-5.246 1.017-5.246"/><path d="m34.632 19.04c.618 0 21.586 0 24.804 0 1.314 0 1.81 3.267 1.01 5.224-7.256 17.922-19.562 17.922-26.824 0-.794-1.957-.301-5.224 1.01-5.224"/></g><g fill="#56717f"><path d="m37.16 21.943c0 1.187-.932 2.143-2.073 2.143h-6.267c-1.137 0-2.067-.957-2.067-2.143l0 0c0-1.183.93-2.144 2.067-2.144h6.267c1.141 0 2.073.961 2.073 2.144l0 0"/><path d="m59 22.752c.44.617-.684 2.244-2.507 3.637l-9.982 7.623c-1.823 1.389-3.652 2.02-4.093 1.4l0 0c-.438-.61.683-2.241 2.508-3.63l9.982-7.625c1.823-1.389 3.654-2.02 4.092-1.405l0 0"/><path d="m49.36 19.938c.219.307-.346 1.124-1.257 1.819l-4.988 3.812c-.916.694-1.829 1.01-2.05.702l0 0c-.22-.305.34-1.124 1.256-1.819l4.988-3.81c.912-.696 1.832-1.012 2.051-.704l0 0"/><path d="m23.68 21.291c.387.546-.609 1.99-2.222 3.226l-8.867 6.768c-1.619 1.232-3.244 1.792-3.631 1.244l0 0c-.393-.542.603-1.988 2.224-3.226l8.863-6.766c1.616-1.235 3.245-1.793 3.633-1.246l0 0"/><path d="m22.482 28.377c.19.273-.303.994-1.112 1.613l-4.427 3.383c-.812.617-1.628.897-1.819.625l0 0c-.196-.271.301-.998 1.11-1.615l4.432-3.381c.806-.619 1.624-.898 1.816-.625l0 0"/></g><path fill="#633d19" d="m44.37 44.55c-.621 0-1.241 0-1.862 0-.095 0-.161.036-.248.05-.094.014-.185.018-.278.057-.161.059-.291.153-.405.262-.023.021-.055.025-.078.051-4.487 4.373-10.366 5.371-15.965 2.491-3.01-1.546-2.759-2.91-5.977-2.91-1.316 0-1.808 1.527-1.014 2.44 7.262 8.377 19.577 8.377 26.837 0 .794-.914.307-2.441-1.01-2.441"/></svg>

<?xml version="1.0" encoding="UTF-8" standalone="no"?>
<!-- Generator: Adobe Illustrator 16.0.0, SVG Export Plug-In . SVG Version: 6.00 Build 0)  -->

<svg
   xmlns:dc="http://purl.org/dc/elements/1.1/"
   xmlns:cc="http://creativecommons.org/ns#"
   xmlns:rdf="http://www.w3.org/1999/02/22-rdf-syntax-ns#"
   xmlns:svg="http://www.w3.org/2000/svg"
   xmlns="http://www.w3.org/2000/svg"
   xmlns:sodipodi="http://sodipodi.sourceforge.net/DTD/sodipodi-0.dtd"
   xmlns:inkscape="http://www.inkscape.org/namespaces/inkscape"
   version="1.1"
   id="Layer_1"
   x="0px"
   y="0px"
   width="64px"
   height="64px"
   viewBox="0 0 64 64"
   enable-background="new 0 0 64 64"
   xml:space="preserve"
   inkscape:version="0.48.5 r10040"
   sodipodi:docname="1F60E.svg"
   inkscape:export-filename="D:\TESTINGEMOJI\SVGTEST\1F60E.png"
   inkscape:export-xdpi="90"
   inkscape:export-ydpi="90"><metadata
   id="metadata3505"><rdf:RDF><cc:Work
       rdf:about=""><dc:format>image/svg+xml</dc:format><dc:type
         rdf:resource="http://purl.org/dc/dcmitype/StillImage" /><dc:title></dc:title></cc:Work></rdf:RDF></metadata><defs
   id="defs3503" /><sodipodi:namedview
   pagecolor="#ffffff"
   bordercolor="#666666"
   borderopacity="1"
   objecttolerance="10"
   gridtolerance="10"
   guidetolerance="10"
   inkscape:pageopacity="0"
   inkscape:pageshadow="2"
   inkscape:window-width="640"
   inkscape:window-height="476"
   id="namedview3501"
   showgrid="false"
   inkscape:zoom="3.6875"
   inkscape:cx="32"
   inkscape:cy="32"
   inkscape:window-x="548"
   inkscape:window-y="291"
   inkscape:window-maximized="0"
   inkscape:current-layer="Layer_1" />
<g
   id="g3437">
	<g
   id="g3439">
		<g
   id="g3441">
			<path
   fill="#FBB041"
   d="M63.771,31.617c0,17.572-14.24,31.814-31.812,31.814c-17.572,0-31.812-14.242-31.812-31.814     c0-17.57,14.24-31.812,31.812-31.812C49.531-0.195,63.771,14.046,63.771,31.617z"
   id="path3443" />
		</g>
	</g>
	<g
   opacity="0.9866"
   id="g3445">
		<g
   id="g3447">
			<g
   id="g3449">
				<path
   fill="#E79D3C"
   d="M15.287,40.815C9.648,28.721,9.397,15.703,14.494,4.94C5.857,10.626,0.147,20.398,0.147,31.515      c0,17.572,14.24,31.812,31.812,31.812c0.314,0,0.625-0.039,0.931-0.047C25.598,57.142,19.452,49.755,15.287,40.815z"
   id="path3451" />
			</g>
		</g>
	</g>
	<g
   id="g3453">
		<g
   id="g3455">
			<path
   fill="#25333A"
   d="M4.389,19.001c0.619,0,21.68,0,24.912,0c1.322,0,1.817,3.279,1.016,5.246     c-7.289,18.003-19.654,18.003-26.945,0C2.572,22.281,3.071,19.001,4.389,19.001z"
   id="path3457" />
		</g>
	</g>
	<g
   id="g3459">
		<g
   id="g3461">
			<path
   fill="#25333A"
   d="M34.632,19.041c0.618,0,21.586,0,24.804,0c1.314,0,1.81,3.267,1.01,5.224     c-7.256,17.922-19.562,17.922-26.824,0C32.828,22.308,33.321,19.041,34.632,19.041z"
   id="path3463" />
		</g>
	</g>
	<g
   id="g3465">
		<g
   id="g3467">
			<path
   fill="#56717F"
   d="M37.162,21.943c0,1.187-0.932,2.143-2.073,2.143h-6.267c-1.137,0-2.067-0.957-2.067-2.143l0,0     c0-1.183,0.93-2.144,2.067-2.144h6.267C36.23,19.799,37.162,20.76,37.162,21.943L37.162,21.943z"
   id="path3469" />
		</g>
	</g>
	<g
   id="g3471">
		<g
   id="g3473">
			<path
   fill="#56717F"
   d="M59.003,22.752c0.44,0.617-0.684,2.244-2.507,3.637l-9.982,7.623c-1.823,1.389-3.652,2.02-4.093,1.4l0,0     c-0.438-0.61,0.683-2.241,2.508-3.63l9.982-7.625C56.734,22.768,58.565,22.135,59.003,22.752L59.003,22.752z"
   id="path3475" />
		</g>
	</g>
	<g
   id="g3477">
		<g
   id="g3479">
			<path
   fill="#56717F"
   d="M49.362,19.938c0.219,0.307-0.346,1.124-1.257,1.819l-4.988,3.812c-0.916,0.694-1.829,1.01-2.05,0.702     l0,0c-0.22-0.305,0.34-1.124,1.256-1.819l4.988-3.81C48.223,19.946,49.143,19.63,49.362,19.938L49.362,19.938z"
   id="path3481" />
		</g>
	</g>
	<g
   id="g3483">
		<g
   id="g3485">
			<path
   fill="#56717F"
   d="M23.68,21.291c0.387,0.546-0.609,1.99-2.222,3.226l-8.867,6.768c-1.619,1.232-3.244,1.792-3.631,1.244     l0,0c-0.393-0.542,0.603-1.988,2.224-3.226l8.863-6.766C21.663,21.302,23.292,20.744,23.68,21.291L23.68,21.291z"
   id="path3487" />
		</g>
	</g>
	<g
   id="g3489">
		<g
   id="g3491">
			<path
   fill="#56717F"
   d="M22.482,28.377c0.19,0.273-0.303,0.994-1.112,1.613l-4.427,3.383c-0.812,0.617-1.628,0.897-1.819,0.625     l0,0c-0.196-0.271,0.301-0.998,1.11-1.615l4.432-3.381C21.472,28.383,22.29,28.104,22.482,28.377L22.482,28.377z"
   id="path3493" />
		</g>
	</g>
	<g
   id="g3495">
		<g
   id="g3497">
			<path
   fill="#633D19"
   d="M44.368,44.55c-0.621,0-1.241,0-1.862,0c-0.095,0-0.161,0.036-0.248,0.05     c-0.094,0.014-0.185,0.018-0.278,0.057c-0.161,0.059-0.291,0.153-0.405,0.262c-0.023,0.021-0.055,0.025-0.078,0.051     c-4.487,4.373-10.366,5.371-15.965,2.491c-3.006-1.546-2.759-2.91-5.977-2.91c-1.316,0-1.808,1.527-1.014,2.44     c7.262,8.377,19.577,8.377,26.837,0C46.172,46.077,45.685,44.55,44.368,44.55z"
   id="path3499" />
		</g>
	</g>
</g>
</svg>
